img/cision-logo-orange.svg

<?xml version="1.0" encoding="UTF-8"?>
<svg width="153px" height="36px" viewBox="0 0 153 36" version="1.1" xmlns="http://www.w3.org/2000/svg" xmlns:xlink="http://www.w3.org/1999/xlink">
    <!-- Generator: Sketch 39.1 (31720) - http://www.bohemiancoding.com/sketch -->
    <title>cision-logo-orange</title>
    <desc>Created with Sketch.</desc>
    <defs></defs>
    <g id="Visual-1" stroke="none" stroke-width="1" fill="none" fill-rule="evenodd">
        <g id="02_Case-Study-Cision" transform="translate(-643.000000, -12244.000000)" fill="#F15D22">
            <g id="Group-26" transform="translate(618.000000, 12244.000000)">
                <g id="cision-logo-orange" transform="translate(25.000000, 0.000000)">
                    <rect id="Rectangle-path" x="31.3147893" y="1.03728814" width="7.93011494" height="34.2610169"></rect>
                    <rect id="Rectangle-path" x="70.394636" y="1.03728814" width="7.93011494" height="34.2610169"></rect>
                    <path d="M146.301456,1.03728814 L137.590345,1.03728814 L137.590345,23.8881356 L125.364751,1.03728814 L116.923985,1.03728814 L116.923985,35.2983051 L124.643831,35.2983051 L124.643831,14.4305085 L135.758008,35.2983051 L145.310192,35.2983051 L145.310192,5.97966102 C145.310192,2.41016949 146.301456,1.03728814 146.301456,1.03728814" id="Shape"></path>
                    <path d="M97.6694253,0.518644068 C88.0571648,0.518644068 80.2772414,8.42033898 80.2772414,18.1830508 C80.2772414,27.9457627 88.0571648,35.8474576 97.6694253,35.8474576 C107.281686,35.8474576 115.061609,27.9457627 115.061609,18.1830508 C115.061609,8.42033898 107.281686,0.518644068 97.6694253,0.518644068 M97.6694253,28.5254237 C92.0522605,28.5254237 87.4864368,23.8881356 87.4864368,18.1830508 C87.4864368,12.4779661 92.0522605,7.84067797 97.6694253,7.84067797 C103.28659,7.84067797 107.852414,12.4779661 107.852414,18.1830508 C107.852414,23.9186441 103.28659,28.5254237 97.6694253,28.5254237" id="Shape"></path>
                    <path d="M17.4370881,28.1898305 C11.8199234,28.1898305 7.25409962,23.5525424 7.25409962,17.8474576 C7.25409962,12.1423729 11.8199234,7.50508475 17.4370881,7.50508475 L17.6773946,7.50508475 L17.6773946,7.50508475 C22.8139464,7.81016949 24.4360153,11.7762712 24.4360153,11.7762712 L28.8216092,4.45423729 C25.7577011,1.76949153 21.7926437,0.152542373 17.4370881,0.152542373 C7.82482759,0.152542373 0.0449042146,8.05423729 0.0449042146,17.8169492 C0.0449042146,27.579661 7.82482759,35.4813559 17.4370881,35.4813559 C21.7926437,35.4813559 25.7577011,33.8644068 28.8216092,31.179661 L24.6763218,25.0779661 C22.8439847,27.0305085 20.2606897,28.1898305 17.4370881,28.1898305 L17.4370881,28.1898305 Z" id="Shape"></path>
                    <path d="M59.7610728,15.8644068 C58.6796935,15.4067797 56.1865134,14.5220339 54.714636,13.9423729 C53.2127203,13.3322034 51.3803831,12.1728814 51.3803831,10.0983051 C51.3803831,8.02372881 53.2427586,7.01694915 55.765977,7.01694915 C56.9975479,7.01694915 58.3793103,7.38305085 59.6709579,7.96271186 C62.0439847,9.21355932 62.8850575,11.2881356 62.8850575,11.2881356 L66.6698851,4.94237288 L66.6398467,4.94237288 L66.6698851,4.91186441 C63.8763218,2.10508475 59.8812261,0.427118644 55.9762452,0.427118644 C52.0712644,0.427118644 48.977318,1.52542373 47.0849042,3.14237288 C45.1324138,4.78983051 43.5704215,7.62711864 43.5704215,10.8915254 C43.5704215,14.1254237 44.7419157,16.1084746 46.2137931,17.4813559 C47.6856705,18.9152542 49.3978544,19.5559322 50.2088889,19.9525424 C51.3203065,20.440678 53.8735632,21.3559322 55.3454406,21.8745763 C56.817318,22.4237288 59.3104981,23.3084746 59.3104981,25.6576271 C59.3104981,27.9457627 57.2678927,28.9830508 54.714636,28.9830508 C52.131341,28.9830508 48.4366284,27.4271186 46.0035249,24.8644068 L42.0985441,30.7220339 C44.8320307,33.3152542 49.1875862,35.5118644 54.0838314,35.8779661 C57.7184674,36.1525424 61.3831418,35.6949153 63.9363985,33.1932203 C66.1592337,30.9966102 67.1805364,28.1288136 67.1805364,24.8644068 C67.1805364,18.6101695 60.9025287,16.4135593 59.7610728,15.8644068 L59.7610728,15.8644068 Z" id="Shape"></path>
                    <path d="M151.377931,2.98983051 C151.468046,2.92881356 151.528123,2.83728814 151.558161,2.74576271 C151.588199,2.65423729 151.618238,2.53220339 151.618238,2.37966102 C151.618238,2.13559322 151.558161,1.95254237 151.407969,1.83050847 C151.257778,1.70847458 150.987433,1.61694915 150.626973,1.61694915 L149.395402,1.61694915 L149.395402,4.45423729 L149.755862,4.45423729 L149.755862,3.14237288 L150.356628,3.14237288 L151.137625,4.42372881 L151.588199,4.42372881 L150.747126,3.11186441 C150.86728,3.11186441 150.957395,3.08135593 151.077548,3.05084746 C151.197701,3.11186441 151.287816,3.05084746 151.377931,2.98983051 L151.377931,2.98983051 Z M149.7859,1.9220339 L150.566897,1.9220339 C150.657011,1.9220339 150.747126,1.9220339 150.807203,1.95254237 C150.897318,1.95254237 150.957395,1.98305085 151.017471,2.01355932 C151.077548,2.0440678 151.137625,2.10508475 151.167663,2.16610169 C151.197701,2.22711864 151.227739,2.31864407 151.227739,2.41016949 C151.227739,2.56271186 151.197701,2.65423729 151.137625,2.71525424 C151.077548,2.77627119 150.987433,2.83728814 150.897318,2.86779661 C150.807203,2.89830508 150.68705,2.89830508 150.596935,2.89830508 L149.7859,2.89830508 L149.7859,1.9220339 L149.7859,1.9220339 Z" id="Shape"></path>
                    <path d="M152.63954,2.07457627 C152.519387,1.76949153 152.339157,1.49491525 152.098851,1.28135593 C151.858544,1.06779661 151.618238,0.884745763 151.317854,0.73220339 C151.017471,0.610169492 150.68705,0.518644068 150.356628,0.518644068 C149.996169,0.518644068 149.695785,0.579661017 149.395402,0.73220339 C149.095019,0.854237288 148.824674,1.03728814 148.614406,1.28135593 C148.404138,1.49491525 148.19387,1.76949153 148.073716,2.07457627 C147.953563,2.37966102 147.863448,2.71525424 147.863448,3.05084746 C147.863448,3.38644068 147.923525,3.7220339 148.073716,4.02711864 C148.19387,4.33220339 148.3741,4.60677966 148.614406,4.82033898 C148.824674,5.06440678 149.095019,5.24745763 149.395402,5.36949153 C149.695785,5.49152542 150.026207,5.58305085 150.356628,5.58305085 C150.68705,5.58305085 151.017471,5.5220339 151.317854,5.36949153 C151.618238,5.24745763 151.888582,5.06440678 152.098851,4.82033898 C152.309119,4.60677966 152.489349,4.33220339 152.63954,4.02711864 C152.759693,3.7220339 152.81977,3.38644068 152.81977,3.05084746 C152.81977,2.71525424 152.759693,2.37966102 152.63954,2.07457627 L152.63954,2.07457627 Z M150.32659,5.24745763 C150.026207,5.24745763 149.755862,5.18644068 149.485517,5.06440678 C149.215172,4.94237288 149.004904,4.78983051 148.824674,4.60677966 C148.644444,4.42372881 148.494253,4.17966102 148.404138,3.90508475 C148.314023,3.63050847 148.253946,3.3559322 148.253946,3.05084746 C148.253946,2.74576271 148.314023,2.47118644 148.404138,2.19661017 C148.494253,1.9220339 148.644444,1.70847458 148.824674,1.49491525 C149.004904,1.31186441 149.215172,1.15932203 149.485517,1.03728814 C149.725824,0.915254237 150.026207,0.854237288 150.32659,0.854237288 C150.626973,0.854237288 150.897318,0.915254237 151.167663,1.03728814 C151.407969,1.15932203 151.648276,1.31186441 151.828506,1.49491525 C152.008736,1.6779661 152.158927,1.9220339 152.249042,2.19661017 C152.339157,2.47118644 152.399234,2.74576271 152.399234,3.05084746 C152.399234,3.3559322 152.339157,3.66101695 152.249042,3.90508475 C152.158927,4.17966102 152.008736,4.39322034 151.828506,4.60677966 C151.648276,4.78983051 151.438008,4.94237288 151.167663,5.06440678 C150.927356,5.18644068 150.626973,5.24745763 150.32659,5.24745763 L150.32659,5.24745763 Z" id="Shape"></path>
                </g>
            </g>
        </g>
    </g>
</svg>

<svg width="153" height="36" viewBox="0 0 153 36" xmlns="http://www.w3.org/2000/svg"><title>cision-logo-orange</title><g fill="#F15D22" fill-rule="evenodd"><path d="M31.315 1.037h7.93v34.261h-7.93zm39.08 0h7.93v34.261h-7.93zm75.906 0h-8.71v22.851l-12.226-22.85h-8.441v34.26h7.72V14.431l11.114 20.867h9.552V5.98c0-3.57.991-4.943.991-4.943M97.67.519c-9.613 0-17.393 7.901-17.393 17.664 0 9.763 7.78 17.664 17.392 17.664 9.613 0 17.393-7.901 17.393-17.664 0-9.763-7.78-17.664-17.393-17.664m0 28.006c-5.617 0-10.183-4.637-10.183-10.342 0-5.705 4.566-10.342 10.183-10.342 5.618 0 10.183 4.637 10.183 10.342 0 5.736-4.565 10.342-10.183 10.342m-80.232-.335c-5.617 0-10.183-4.637-10.183-10.343 0-5.705 4.566-10.342 10.183-10.342h.24c5.137.305 6.759 4.271 6.759 4.271l4.386-7.322C25.758 1.77 21.792.153 17.437.153 7.825.153.045 8.054.045 17.817c0 9.763 7.78 17.664 17.392 17.664 4.356 0 8.32-1.617 11.385-4.301l-4.146-6.102a9.88 9.88 0 0 1-7.239 3.112zm42.324-12.326c-1.081-.457-3.574-1.342-5.046-1.922-1.502-.61-3.335-1.77-3.335-3.844s1.863-3.081 4.386-3.081c1.232 0 2.613.366 3.905.946 2.373 1.25 3.214 3.325 3.214 3.325l3.785-6.346h-.03l.03-.03C63.876 2.105 59.88.427 55.976.427c-3.905 0-6.999 1.098-8.891 2.715-1.953 1.648-3.515 4.485-3.515 7.75 0 3.233 1.172 5.216 2.644 6.59 1.472 1.433 3.184 2.074 3.995 2.47 1.111.489 3.665 1.404 5.136 1.923 1.472.549 3.965 1.433 3.965 3.783 0 2.288-2.042 3.325-4.595 3.325-2.584 0-6.278-1.556-8.711-4.119l-3.905 5.858c2.733 2.593 7.089 4.79 11.985 5.156 3.634.275 7.3-.183 9.852-2.685 2.223-2.196 3.245-5.064 3.245-8.329 0-6.254-6.278-8.45-7.42-9zM151.378 2.99a.474.474 0 0 0 .18-.244c.03-.092.06-.214.06-.366 0-.244-.06-.427-.21-.55-.15-.122-.42-.213-.781-.213h-1.232v2.837h.36V3.142h.602l.78 1.282h.451l-.84-1.312c.12 0 .21-.03.33-.061.12.06.21 0 .3-.061zm-1.592-1.068h.78c.091 0 .181 0 .241.03.09 0 .15.031.21.062.06.03.12.091.15.152s.06.153.06.244c0 .153-.03.244-.09.305a.653.653 0 0 1-.24.153c-.09.03-.21.03-.3.03h-.811v-.976z"/><path d="M152.64 2.075c-.12-.306-.3-.58-.541-.794a3.612 3.612 0 0 0-.781-.549 2.595 2.595 0 0 0-.961-.213c-.36 0-.661.06-.962.213-.3.122-.57.305-.78.55a2.46 2.46 0 0 0-.541.793c-.12.305-.21.64-.21.976 0 .335.06.671.21.976.12.305.3.58.54.793.21.244.481.427.781.55.3.122.631.213.962.213.33 0 .66-.061.96-.214.301-.122.572-.305.782-.549.21-.213.39-.488.54-.793.12-.305.18-.64.18-.976 0-.336-.06-.671-.18-.976zm-2.313 3.172c-.3 0-.571-.06-.841-.183a2.139 2.139 0 0 1-.661-.457 1.816 1.816 0 0 1-.42-.702 2.661 2.661 0 0 1-.151-.854c0-.305.06-.58.15-.854.09-.275.24-.489.42-.702.18-.183.391-.336.662-.458.24-.122.54-.183.84-.183.301 0 .571.061.842.183.24.122.48.275.66.458.18.183.33.427.421.702.09.274.15.549.15.854 0 .305-.06.61-.15.854-.09.275-.24.488-.42.702a2.14 2.14 0 0 1-.661.457c-.24.122-.541.183-.841.183z"/></g></svg>
